assets/images/blog/calendar.svg

<svg width="23" height="23" viewBox="0 0 23 23" fill="none" xmlns="http://www.w3.org/2000/svg">
<path d="M7.41667 1.854V4.63525M14.8333 1.854V4.63525M3.24479 8.42702H19.0052M19.4687 7.88005V15.7603C19.4687 18.5415 18.0781 20.3957 14.8333 20.3957H7.41667C4.17187 20.3957 2.78125 18.5415 2.78125 15.7603V7.88005C2.78125 5.0988 4.17187 3.24463 7.41667 3.24463H14.8333C18.0781 3.24463 19.4687 5.0988 19.4687 7.88005Z" stroke="black" stroke-width="1.39062" stroke-miterlimit="10" stroke-linecap="round" stroke-linejoin="round"/>
<path d="M14.5508 12.7012H14.5591M14.5508 15.4824H14.5591M11.1206 12.7012H11.1299M11.1206 15.4824H11.1299M7.68945 12.7012H7.69872M7.68945 15.4824H7.69872" stroke="black" stroke-width="1.85417" stroke-linecap="round" stroke-linejoin="round"/>
</svg>

<svg width="23" height="23" fill="none" xmlns="http://www.w3.org/2000/svg"><path d="M7.417 1.854v2.781m7.416-2.781v2.781M3.245 8.427h15.76m.464-.547v7.88c0 2.781-1.39 4.636-4.636 4.636H7.417c-3.245 0-4.636-1.855-4.636-4.636V7.88c0-2.781 1.39-4.635 4.636-4.635h7.416c3.245 0 4.636 1.854 4.636 4.635Z" stroke="#000" stroke-width="1.391" stroke-miterlimit="10" stroke-linecap="round" stroke-linejoin="round"/><path d="M14.55 12.701h.01m-.01 2.781h.01m-3.44-2.78h.01m-.01 2.78h.01m-3.44-2.78h.009m-.01 2.78h.01" stroke="#000" stroke-width="1.854" stroke-linecap="round" stroke-linejoin="round"/></svg>
